!!!COM:	Bach, Johann Sebastian
!!!CDT:	1685/02/21/-1750/07/28/
!!!OTL@@DE:	Freu dich sehr, o meine Seele
!!!SCT:	BWV 32/6
!!!PC#:	29
!!!AGN:	chorale
**harm	**kern	**kern	**kern	**kern
*	*ICvox	*ICvox	*ICvox	*ICvox
*	*Ibass	*Itenor	*Ialto	*Isoprn
*	*I"Bass	*I"Tenor	*I"Alto	*I"Soprano
*>[A,A,B]	*>[A,A,B]	*>[A,A,B]	*>[A,A,B]	*>[A,A,B]
*>norep[A,B]	*>norep[A,B]	*>norep[A,B]	*>norep[A,B]	*>norep[A,B]
*>A	*>A	*>A	*>A	*>A
*	*	*oclefC4	*oclefC3	*oclefC1
*	*clefF4	*clefGv2	*clefG2	*clefG2
*k[f#]	*k[f#]	*k[f#]	*k[f#]	*k[f#]
*G:	*G:	*G:	*G:	*G:
*M4/4	*M4/4	*M4/4	*M4/4	*M4/4
*met(c)	*met(c)	*met(c)	*met(c)	*met(c)
*MM100	*MM100	*MM100	*MM100	*MM100
=1-	=1-	=1-	=1-	=1-
I	4G	4B	4d	4g
V6	4F#	4A	4d	4a
I	4G	4G	4d	4b
V	4D	4F#	4d	4a
=2	=2	=2	=2	=2
D:viio6	4E	4G	4c#	4g
I6	4F#	4A	4d	4f#
V7	4A	4G	4c#	4e
I;	4D;	4F#;	4A;	4d;
=3	=3	=3	=3	=3
G:vi	4E	4B	4e	4g
V6	4F#	4A	4d	4a
I	4G	4G	4d	4b
ii	8AAL	8EL	8aL	8ccL
viio6	8AAJ	8F#J	8aJ	8ccJ
=4	=4	=4	=4	=4
I6	4BB	4G	4d	4b
V	4D	4F#	4d	4a
I;	2GG;	2B;	2d;	2g;
=5:|!	=5:|!	=5:|!	=5:|!	=5:|!
*>B	*>B	*>B	*>B	*>B
I	4G	4d	4g	4b
IV6	4E	4e	4g	4cc
V	4D	4A	4f#	4dd
IV6	4E	4e	4g	4cc
=6	=6	=6	=6	=6
I	4G	4d	4g	4b
V	4D	4d	4f#	4a
I;	2GG;	2d;	2g;	2b;
=7	=7	=7	=7	=7
I	4G	4B	4g	4dd
V65/IV	4D	4B	4g	4dd
IV	4C	4c	4g	4ee
V	4D	4A	4f#	4dd
=8	=8	=8	=8	=8
IV6	8EL	8GL	8eL	8ccL
vii%7	8F#J	8AJ	8eJ	8ccJ
I	8GL	8BL	8dL	8bL
vii%43/V	8GJ	8c#J	8eJ	8bJ
V;	2D;	2d;	2f#;	2a;
=9	=9	=9	=9	=9
I	4G	4d	4g	4b
I	4GG	4B	4g	4dd
ii	8AAL	8cL	8eL	8ccL
viio6	8AAJ	8cJ	8f#J	8ccJ
I6	4BB	4d	4g	4b
=10	=10	=10	=10	=10
IV	4C	4e	4e	4g
viio6	4AA	4c	4f#	4a
I	4GG	4d	4g	4b
I6	4BB	4d	4g	4b
=11	=11	=11	=11	=11
IV;	2C;	2c;	2e;	2g;
I	4G	4d	4g	4b
V6	4F#	4d	4a	4dd
=12	=12	=12	=12	=12
IV6	4E	4G	4g	4cc
I	4G	4B	4d	4b
V2	4C	4d	4f#	4a
I6	4BB	4d	4g	4b
=13	=13	=13	=13	=13
V(54)	4D	4d	4g	4a
V7	4D	4c	4f#	4a
I;	2GG;	2B;	2d;	2g;
==	==	==	==	==
*-	*-	*-	*-	*-
!!!YOR1: 371 vierstimmige Choralges&auml;nge von Johann Sebastian Bach, 
!!!YOR2: 4th ed. by Alfred D&ouml;rffel (Leipzig: Breitkopf und H&auml;rtel, 
!!!YOR2: c.1875). 178 pp. Plate "V.A.10".  reprint: J.S. Bach, 371 Four-Part 
!!!YOR4: Chorales (New York: Associated Music Publishers, Inc., c.1940).
!!!SMS: B&H, 4th ed, Alfred D&ouml;rffel, c.1875, plate V.A.10
!!!EED:  Craig Stuart Sapp
!!!EEV:  2009/05/22
